styles/2/Numix/48/places/pink-folder-google-drive.svg

<?xml version="1.0" encoding="UTF-8" standalone="no"?>
<svg
   xmlns:dc="http://purl.org/dc/elements/1.1/"
   xmlns:cc="http://creativecommons.org/ns#"
   xmlns:rdf="http://www.w3.org/1999/02/22-rdf-syntax-ns#"
   xmlns:svg="http://www.w3.org/2000/svg"
   xmlns="http://www.w3.org/2000/svg"
   xmlns:sodipodi="http://sodipodi.sourceforge.net/DTD/sodipodi-0.dtd"
   xmlns:inkscape="http://www.inkscape.org/namespaces/inkscape"
   width="48"
   viewBox="0 0 48 48"
   height="48"
   id="svg2"
   version="1.1"
   inkscape:version="0.91 r"
   sodipodi:docname="pink-folder-google-drive.svg">
  <metadata
     id="metadata20">
    <rdf:RDF>
      <cc:Work
         rdf:about="">
        <dc:format>image/svg+xml</dc:format>
        <dc:type
           rdf:resource="http://purl.org/dc/dcmitype/StillImage" />
      </cc:Work>
    </rdf:RDF>
  </metadata>
  <defs
     id="defs18" />
  <sodipodi:namedview
     pagecolor="#ffffff"
     bordercolor="#666666"
     borderopacity="1"
     objecttolerance="10"
     gridtolerance="10"
     guidetolerance="10"
     inkscape:pageopacity="0"
     inkscape:pageshadow="2"
     inkscape:window-width="1280"
     inkscape:window-height="998"
     id="namedview16"
     showgrid="false"
     inkscape:zoom="16"
     inkscape:cx="10.907116"
     inkscape:cy="21.20159"
     inkscape:window-x="0"
     inkscape:window-y="0"
     inkscape:window-maximized="1"
     inkscape:current-layer="svg2">
    <inkscape:grid
       type="xygrid"
       id="grid3104" />
  </sodipodi:namedview>
  <path
     style="font-size:medium;font-style:normal;font-variant:normal;font-weight:normal;font-stretch:normal;text-indent:0;text-align:start;text-decoration:none;line-height:normal;letter-spacing:normal;word-spacing:normal;text-transform:none;direction:ltr;block-progression:tb;writing-mode:lr-tb;text-anchor:start;baseline-shift:baseline;color:#000000;fill:#f06292;fill-opacity:1;fill-rule:nonzero;stroke:none;stroke-width:1;marker:none;visibility:visible;display:inline;overflow:visible;enable-background:accumulate;font-family:Sans;-inkscape-font-specification:Sans"
     d="m 6.000023,6 c -1,0 -2,1 -2,2 l 0,2 -1,0 c -1,0 -2.00556897,0.949207 -2,2 l 0,28 c 1.28e-4,1.120734 1.037763,1.9999 2.1875,2 l 41.625,0 c 1.1875,0 2.1875,-1 2.1875,-2 l 0,-25 c 0,-1 -1,-2 -2,-2 l -2,0 0,-5 c 0,-1 -1,-2 -2,-2 z"
     id="path3770"
     inkscape:connector-curvature="0"
     sodipodi:nodetypes="sscsccccccccsss" />
  <path
     inkscape:connector-curvature="0"
     style="font-size:medium;font-style:normal;font-variant:normal;font-weight:normal;font-stretch:normal;text-indent:0;text-align:start;text-decoration:none;line-height:normal;letter-spacing:normal;word-spacing:normal;text-transform:none;direction:ltr;block-progression:tb;writing-mode:lr-tb;text-anchor:start;baseline-shift:baseline;color:#000000;fill:#000000;fill-opacity:0.32156863;fill-rule:nonzero;stroke:none;stroke-width:1;marker:none;visibility:visible;display:inline;overflow:visible;enable-background:accumulate;font-family:Sans;-inkscape-font-specification:Sans"
     d="m 6.000023,6 c -1,0 -2,1 -2,2 l 0,2 -1,0 c -1,0 -2.00556897,0.949207 -2,2 l 0,28 c 1.28e-4,1.120734 1.037763,1.9999 2.1875,2 l 41.625,0 c 1.1875,0 2.1875,-1 2.1875,-2 l 0,-25 c 0,-1 -1,-2 -2,-2 l -2,0 0,-5 c 0,-1 -1,-2 -2,-2 l -35,0 z m -3,5 24,0 c 0.507314,0 1,0.494167 1,1 l 0,2 17,0 c 0.540858,0 1,0.471809 1,1 l 0,25 c 0,0.553755 -0.452115,1 -1,1 l -42,0 c -0.512726,0 -1,-0.446246 -1,-1 l 0,-28 c 0,-0.543318 0.479042,-1 1,-1 z"
     id="path3779" />
  <path
     style="opacity:1;fill:#000000;fill-opacity:0.32156864000000002;fill-rule:evenodd"
     d="M 21.25 20 L 27.125 30 L 33 30 L 27.125 20 L 21.25 20 z M 20.28125 20.59375 L 14 30.46875 L 17.15625 35.375 L 23.28125 25.625 L 20.28125 20.59375 z M 21.1875 31 L 18 36 L 30 36 L 33 31 L 21.1875 31 z "
     id="polygon3475-1" />
</svg>

<svg xmlns="http://www.w3.org/2000/svg" viewBox="0 0 48 48">
 <path d="m 6 6 c -1 0 -2 1 -2 2 l 0 2 -1 0 c -1 0 -2.01 0.949 -2 2 l 0 28 c 0 1.121 1.038 2 2.188 2 l 41.625 0 c 1.188 0 2.188 -1 2.188 -2 l 0 -25 c 0 -1 -1 -2 -2 -2 l -2 0 0 -5 c 0 -1 -1 -2 -2 -2 z" style="visibility:visible;fill:#f06292;fill-opacity:1;stroke:none;display:inline;color:#000;fill-rule:nonzero"/>
 <path d="m 6 6 c -1 0 -2 1 -2 2 l 0 2 -1 0 c -1 0 -2.01 0.949 -2 2 l 0 28 c 0 1.121 1.038 2 2.188 2 l 41.625 0 c 1.188 0 2.188 -1 2.188 -2 l 0 -25 c 0 -1 -1 -2 -2 -2 l -2 0 0 -5 c 0 -1 -1 -2 -2 -2 l -35 0 z m -3 5 24 0 c 0.507 0 1 0.494 1 1 l 0 2 17 0 c 0.541 0 1 0.472 1 1 l 0 25 c 0 0.554 -0.452 1 -1 1 l -42 0 c -0.513 0 -1 -0.446 -1 -1 l 0 -28 c 0 -0.543 0.479 -1 1 -1 z" style="visibility:visible;fill:#000;fill-opacity:0.322;stroke:none;display:inline;color:#000;fill-rule:nonzero"/>
 <path d="m 21.25 20 l 5.875 10 l 5.875 0 l -5.875 -10 l -5.875 0 z m -0.969 0.594 l -6.281 9.875 l 3.156 4.906 l 6.125 -9.75 l -3 -5.03 z m 0.906 10.406 l -3.188 5 l 12 0 l 3 -5 l -11.813 0 z" style="fill:#000;opacity:1;fill-opacity:0.322;fill-rule:evenodd"/>
</svg>
